resources/svg/skype-o.svg

<svg xmlns="http://www.w3.org/2000/svg" viewBox="0 0 15 15" fill="none"><path d="M13.8292 8.34061L13.3337 8.27388C13.3174 8.39507 13.346 8.51804 13.4143 8.61953L13.8292 8.34061ZM6.65938 1.17017L6.38046 1.58515C6.48133 1.65295 6.60344 1.68168 6.72396 1.66599L6.65938 1.17017ZM1.17018 6.65939L1.66585 6.72504C1.68186 6.60419 1.65316 6.48165 1.58515 6.38047L1.17018 6.65939ZM8.34 13.8298L8.61874 13.4147C8.51759 13.3468 8.39513 13.3182 8.27435 13.3342L8.34 13.8298ZM14.3247 8.40733C14.3638 8.11707 14.3913 7.81433 14.3913 7.5H13.3913C13.3913 7.75662 13.3689 8.01267 13.3337 8.27388L14.3247 8.40733ZM14.3913 7.5C14.3913 3.694 11.3053 0.608696 7.5 0.608696V1.6087C10.7531 1.6087 13.3913 4.24635 13.3913 7.5H14.3913ZM7.5 0.608696C7.18522 0.608696 6.88264 0.636873 6.59481 0.674361L6.72396 1.66599C6.98761 1.63165 7.24382 1.6087 7.5 1.6087V0.608696ZM6.93831 0.755201C6.22907 0.278494 5.37403 0 4.45652 0V1C5.1691 1 5.83091 1.21577 6.38046 1.58515L6.93831 0.755201ZM4.45652 0C1.99516 0 0 1.99516 0 4.45652H1C1 2.54745 2.54745 1 4.45652 1V0ZM0 4.45652C0 5.37468 0.278526 6.22912 0.755209 6.93831L1.58515 6.38047C1.21575 5.83088 1 5.16966 1 4.45652H0ZM0.674511 6.59374C0.636172 6.8832 0.608696 7.18572 0.608696 7.5H1.6087C1.6087 7.24332 1.63115 6.98706 1.66585 6.72504L0.674511 6.59374ZM0.608696 7.5C0.608696 11.306 3.69403 14.3913 7.5 14.3913V13.3913C4.24632 13.3913 1.6087 10.7537 1.6087 7.5H0.608696ZM7.5 14.3913C7.81368 14.3913 8.11621 14.3638 8.40565 14.3255L8.27435 13.3342C8.01231 13.3689 7.75605 13.3913 7.5 13.3913V14.3913ZM8.06127 14.2449C8.77094 14.7215 9.62528 15 10.5435 15V14C9.83037 14 9.16907 13.7843 8.61874 13.4147L8.06127 14.2449ZM10.5435 15C13.0042 15 15 13.0049 15 10.5435H14C14 12.4525 12.452 14 10.5435 14V15ZM15 10.5435C15 9.62506 14.7207 8.77067 14.2442 8.06169L13.4143 8.61953C13.7838 9.16933 14 9.83059 14 10.5435H15ZM7 8H8V7H7V8ZM9.94721 5.27639C9.55608 4.49413 8.75656 4 7.88197 4V5C8.37778 5 8.83105 5.28013 9.05279 5.72361L9.94721 5.27639ZM9 9C9 9.55229 8.55229 10 8 10V11C9.10457 11 10 10.1046 10 9H9ZM8 8C8.55228 8 9 8.44772 9 9H10C10 7.89543 9.10457 7 8 7V8ZM7.11803 10C6.62221 10 6.16895 9.71987 5.94721 9.27639L5.05279 9.72361C5.44392 10.5059 6.24344 11 7.11803 11V10ZM5 6C5 7.10457 5.89543 8 7 8V7C6.44772 7 6 6.55228 6 6H5ZM6 6C6 5.44772 6.44772 5 7 5V4C5.89543 4 5 4.89543 5 6H6ZM8 10H7.11803V11H8V10ZM7.88197 4H7V5H7.88197V4Z" fill="black"/></svg>

<svg xmlns="http://www.w3.org/2000/svg" viewBox="0 0 15 15" fill="none"><path d="M13.83 8.34l-.496-.066a.5.5 0 00.08.346l.415-.28zM6.66 1.17l-.28.415a.5.5 0 00.344.081l-.065-.496zM1.17 6.66l.496.065a.5.5 0 00-.08-.345l-.416.28zm7.17 7.17l.279-.415a.5.5 0 00-.345-.08l.066.495zm5.985-5.423c.039-.29.066-.593.066-.907h-1c0 .257-.022.513-.057.774l.99.133zm.066-.907A6.892 6.892 0 007.5.609v1A5.892 5.892 0 0113.391 7.5h1zM7.5.609a7.07 7.07 0 00-.905.065l.129.992c.264-.034.52-.057.776-.057v-1zm-.562.146A4.437 4.437 0 004.457 0v1c.712 0 1.374.216 1.923.585l.558-.83zM4.457 0A4.456 4.456 0 000 4.457h1A3.456 3.456 0 014.457 1V0zM0 4.457c0 .918.279 1.772.755 2.481l.83-.558A3.436 3.436 0 011 4.457H0zm.675 2.137a6.88 6.88 0 00-.066.906h1c0-.257.022-.513.057-.775l-.991-.131zM.609 7.5A6.891 6.891 0 007.5 14.391v-1A5.891 5.891 0 011.609 7.5h-1zM7.5 14.391c.314 0 .616-.027.906-.066l-.132-.99a5.888 5.888 0 01-.774.056v1zm.561-.146c.71.477 1.564.755 2.482.755v-1a3.439 3.439 0 01-1.924-.585l-.558.83zm2.482.755A4.457 4.457 0 0015 10.543h-1A3.457 3.457 0 0110.543 14v1zM15 10.543c0-.918-.28-1.772-.756-2.481l-.83.558c.37.55.586 1.21.586 1.924h1zM7 8h1V7H7v1zm2.947-2.724A2.309 2.309 0 007.882 4v1c.496 0 .949.28 1.17.724l.895-.448zM9 9a1 1 0 01-1 1v1a2 2 0 002-2H9zM8 8a1 1 0 011 1h1a2 2 0 00-2-2v1zm-.882 2c-.496 0-.95-.28-1.17-.724l-.895.448A2.309 2.309 0 007.118 11v-1zM5 6a2 2 0 002 2V7a1 1 0 01-1-1H5zm1 0a1 1 0 011-1V4a2 2 0 00-2 2h1zm2 4h-.882v1H8v-1zm-.118-6H7v1h.882V4z" fill="currentColor"/></svg>
